!! Isochronous pitch passage.
!! Bass-line.
!! From Shostakovich, Preludes & Fugues, Opus 87, Prelude No. 15, measure 24ff.
!! Piano
!! 3/4 meter
**kern	**metpos
*M3/4	*M3/4
*tb4	*tb4
=24	=24
4Dn	1
4D	2
4AAn	2
=25	=25
4Dn	1
4D	2
4AA-	2
=26	=26
4Dn	1
4GGn	2
4D	2
=27	=27
4GG-	1
4Dn	2
4FF	2
=28	=28
4BB-	1
4G-	2
4F-	2
=29	=29
4C	1
4G-	2
4F	2
=30	=30
4D-	1
4G-	2
4F	2
=31	=31
4E-	1
4G-	2
4F	2
=32	=32
4BB-	1
4G-	2
4F	2
=33	=33
4C	1
4G-	2
4F	2
=34	=34
4D-	1
4G-	2
4F	2
=35	=35
4BB-	1
4C	2
4D-	2
=36	=36
4EE-	1
4D-	2
4FF	2
=37	=37
4GG-	1
4D-	2
4FF	2
=38	=38
4EE-	1
4D-	2
4FF	2
=39	=39
4GG-	1
4D-	2
4FF	2
=40	=40
4EE-	1
4D-	2
4FF	2
=41	=41
4GG-	1
4GGn	2
4CC	2
=42	=42
4DD-	1
4DD-	2
4DD-	2
=43	=43
4GG-	1
4GG-	2
4GG-	2
=44	=44
4GGn	1
4C	2
4C	2
=45	=45
4GG-	1
4C	2
4C	2
=46	=46
4FF	1
4D-	2
4C	2
=47	=47
4BB-	1
4BB-	2
4C	2
=48	=48
4D-	1
4F	2
4F	2
=49	=49
4D-	1
4F	2
4F	2
=50	=50
4E-	1
4F	2
4D-	2
=51	=51
4E-	1
4F	2
4D-	2
=52	=52
4E-	1
4F	2
4D-	2
=53	=53
4E-	1
4F	2
4D-	2
=54	=54
4C	1
4B-	2
4D-	2
=55	=55
4E-	1
4B-	2
4D-	2
=56	=56
4C	1
4B-	2
4D-	2
=57	=57
4E-	1
4F	2
4G-	2
=58	=58
4Gn	1
4Dn	2
4D	2
=59	=59
4A-	1
4D-	2
4D-	2
=60	=60
4Gn	1
4Dn	2
4D	2
=61	=61
4A-	1
4D-	2
4D-	2
=62	=62
*-	*-
